X:1090
T: Setting of the Sun
T: Dul Faoi na Gr\'eine
S: B.Breathnach:"Ceol Rince na hEireann" IV/103
Z: B.Black
L: 1/8
M: 4/4
R: reel
K: D
(3A/B/c/|: dDDG F2 (3FED|ED D2 dfec|d2 (3cBA BAFA|\
cABc dfec|
dDDG F2 (3FED|ED D2 dfec|dcdc dfed|cABc dAFA :|
defg a2 fd|cdef g2 fe|defg abaf|g2 fd eB B2|
defg a2 fd|cdef gfef|(3gab ag (3fga gf|edBc dfec :|
